X: 1
T: Wing Commander Donald Mackenzie's
R: reel
M: 4/4
L: 1/8
K: Amaj
cE E/2E/2E cEBE|AFFE FAEA|F2FE FGAB|cBAB cffe|
cE E/2E/2E cEBE|AFFE FAEA|F2FE FGAB|1~c2BG A3B:|2~c2Bc Aa a/2a/2a||
|:aefe c2Bc|AFEF ABce|faba fbaf|ecAB BAce|
aefe c2Bc|AFEF ABce|faba fbaf|1ecBc Aa a/2a/2a:|2ecBc A3B||


Tune 4635	Setting 24604

